X: 41437
T: Two Days To Go
R: reel
M: 4/4
K: Gmajor
~G3d eGEG|dedB AdBA|G2dg eGBd|eGdG (3cBA BA|or dBAB AGEA|
GDEG d3e|dDBd AGEG|(3DEG DB AGGd|1 dGAB ADBA:|2 dGAB AG~G2||
|:b2ag ag2d|eGeg edBd|d2bg ag2d|eG (3deg ~a3b|
abgb ag~g2|eGdB AGEG|EDGB AGGd|1 dGAB AG~G2:|2 dGAB ADBA||

